X: 36528
T: Sestrina
R: polka
M: 2/4
K: Gmixolydian
B/A/B/c/|d3d|^cA=cB|G2 A/B/A/G/|FE FG|1 AF/D/ GA/B/|GD:|2 A/F/D/F/ GA/B/||
|:BD c/d/c/B/|Ac/B/ AB|GG/F/ GA|BG FE|FG AF/D/|1 GA/B/ GD:|2 GA/B/ G2||
c/d/c/B/ Gc/B/|AG AB|D2 zG|FE DC|zG EF|GA/B/ D2|zG FE|DCzG|EF GA/B/|GD||

